project/porshe/images/car-list/wheel.svg

<svg width="16" height="16" viewBox="0 0 16 16" fill="none" xmlns="http://www.w3.org/2000/svg">
<path fill-rule="evenodd" clip-rule="evenodd" d="M8 0C3.58159 0 0 3.58159 0 8C0 12.4184 3.58159 16 8 16C12.4184 16 16 12.4184 16 8C16 3.58159 12.4184 0 8 0ZM4.52501 13.4369C4.05763 13.1598 3.5357 12.711 3.03981 12.2163C1.33393 10.516 1.99037 8.69425 1.99037 8.69425C2.01951 8.7426 2.4001 8.8393 2.4001 8.8393C2.4001 8.8393 2.52284 9.51062 2.56127 9.54967C2.5997 9.58872 2.70322 9.60794 2.8712 9.65319C3.03919 9.69844 3.09745 9.62096 3.08444 9.50442C3.07142 9.38789 3.01997 8.98807 3.01997 8.98807C3.01997 8.98807 3.28465 9.03952 3.98882 9.19449C4.69299 9.34945 4.85416 9.35565 4.98309 9.70464C5.11202 10.0536 5.3767 10.5762 5.76412 10.9896C6.15154 11.4031 6.3127 11.4415 6.42924 11.7583C6.54577 12.0744 6.80364 14.0635 6.81046 14.1795C6.81046 14.1795 5.80379 14.1956 4.52501 13.4369ZM12.9986 12.2169C12.5028 12.711 11.9808 13.1598 11.5134 13.4375C10.2347 14.1962 9.22738 14.1801 9.22738 14.1801C9.23357 14.0635 9.49206 12.075 9.60859 11.7589C9.72513 11.4427 9.88629 11.4037 10.2737 10.9902C10.6611 10.5768 10.9258 10.0542 11.0547 9.70525C11.1837 9.35626 11.3455 9.35006 12.049 9.1951C12.7526 9.04013 13.0179 8.98868 13.0179 8.98868C13.0179 8.98868 12.9664 9.38912 12.9534 9.50503C12.9404 9.62157 12.9986 9.69905 13.1666 9.6538C13.3346 9.60855 13.4381 9.58933 13.4766 9.55028C13.515 9.51123 13.6377 8.83991 13.6377 8.83991C13.6377 8.83991 14.0189 8.74321 14.0475 8.69487C14.0475 8.69487 14.7051 10.5173 12.9986 12.2169ZM13.8063 6.36046C13.608 6.38154 13.5268 6.38649 13.4852 6.42493C13.4437 6.46336 13.4319 6.53154 13.4319 6.53154L13.4096 6.52534C13.4096 6.52534 13.5534 6.35612 13.2726 6.2898C12.9918 6.22347 12.6899 6.17512 12.6366 6.20921C12.5833 6.24331 12.6286 6.2836 12.6658 6.31273C12.703 6.34186 12.716 6.40819 12.716 6.40819C12.716 6.40819 12.2914 6.41129 11.5345 6.40509C10.7777 6.39889 10.4107 6.45034 10.0059 6.19496C9.60115 5.93957 9.0005 5.55711 8.02049 5.55711C7.04048 5.55711 6.41441 5.98482 6.21234 6.0964C6.01088 6.20797 5.8429 6.30157 4.95959 6.32947C4.95959 6.32947 3.4936 6.39517 3.40496 6.3741C3.31632 6.35302 3.47625 6.28856 3.39071 6.21417C3.30516 6.13979 2.70637 6.29971 2.65616 6.34C2.60595 6.3803 2.6822 6.46894 2.6822 6.46894L2.65988 6.47204C2.65988 6.47204 2.64377 6.32699 2.46462 6.31211C2.36855 6.30405 1.94828 6.32947 1.8429 6.08152C1.72016 5.7908 1.88567 5.55649 2.08837 5.30669C2.52413 4.76926 2.93572 4.17357 3.0473 3.98947C3.15888 3.80537 3.15392 3.81529 3.10557 3.72789C3.10557 3.72789 3.16879 3.72293 3.25062 3.59709C3.33244 3.47126 4.91186 1.48087 8.02049 1.48583C11.1291 1.49079 12.7377 3.53449 12.83 3.64111C12.83 3.64111 12.9038 3.73161 12.9379 3.75578C12.9379 3.75578 12.8988 3.87541 12.967 3.97521C13.0352 4.07501 13.7239 5.01349 14.0245 5.42136C14.3245 5.82985 14.3183 5.95383 14.2619 6.12057C14.2055 6.28732 14.0065 6.34 13.8082 6.36108L13.8063 6.36046Z" fill="#DC0027"/>
</svg>

<svg width="16" height="16" fill="none" xmlns="http://www.w3.org/2000/svg"><path fill-rule="evenodd" clip-rule="evenodd" d="M8 0a8 8 0 100 16A8 8 0 008 0zM4.525 13.437c-.467-.277-.99-.726-1.485-1.22-1.706-1.701-1.05-3.523-1.05-3.523.03.049.41.145.41.145s.123.672.161.71c.039.04.142.059.31.104s.226-.032.213-.149c-.013-.116-.064-.516-.064-.516s.265.052.969.206c.704.155.865.162.994.51.129.35.394.872.781 1.286.388.413.549.451.665.768.117.316.375 2.306.381 2.422 0 0-1.006.016-2.285-.743zm8.474-1.22c-.496.494-1.018.943-1.486 1.22-1.278.76-2.286.743-2.286.743.007-.117.265-2.105.382-2.421.116-.316.277-.355.665-.769.387-.413.652-.936.78-1.285.13-.349.291-.355.995-.51.704-.155.969-.206.969-.206s-.052.4-.065.516c-.013.117.046.194.214.149.168-.045.271-.065.31-.104.038-.039.16-.71.16-.71s.382-.097.41-.145c0 0 .658 1.822-1.048 3.522zm.807-5.857c-.198.022-.28.026-.32.065-.042.038-.054.107-.054.107l-.022-.007s.143-.169-.137-.235c-.281-.067-.583-.115-.636-.08-.054.033-.008.074.029.103.037.029.05.095.05.095s-.425.003-1.181-.003c-.757-.006-1.124.045-1.53-.21C9.602 5.94 9 5.557 8.02 5.557c-.98 0-1.606.428-1.808.54-.201.111-.37.205-1.252.232 0 0-1.466.066-1.555.045-.089-.021.071-.085-.014-.16-.086-.074-.685.086-.735.126-.05.04.026.129.026.129l-.022.003s-.016-.145-.195-.16c-.096-.008-.517.017-.622-.23-.123-.291.043-.526.245-.775.436-.538.848-1.133.96-1.318.11-.184.106-.174.058-.261 0 0 .063-.005.145-.13.081-.127 1.66-2.117 4.77-2.112 3.108.005 4.717 2.048 4.809 2.155 0 0 .074.09.108.115 0 0-.04.12.029.22.068.099.757 1.037 1.057 1.445.3.409.294.533.238.7-.056.166-.255.219-.454.24h-.002z" fill="#DC0027"/></svg>
